X:1
T:Moederke alleen
T:René de Clercq
T:Emiel Hullebroeck arr. Wim Verkaik
T:Moederke alleen
T:René de Clercq
T:René de Clercq
T:René de Clercq
C:Emiel Hullebroeck
Z:René de Clercq
%%score [ 1 2 3 4 ]
L:1/8
Q:1/4=60
M:6/8
K:G
V:1 treble nm="Soprano" snm="S"
V:2 treble nm="Alto" snm="A"
V:3 treble-8 nm="Tenor" snm="T"
V:4 bass nm="Bass" snm="B"
V:1
 B | B>AG B>AG | A2 c c2 c | B>BB e>ee | A3- AzB | B>AG B>AG | A2 c c2 c | B>BB e>ee | A3- A2 z | %9
w: 1.Wie|zal er ons kin- de- ke|douw- * en en|doet het zijn moe- der- ken|niet? * Wie|zal er zijn de- ken- tjes|vouw- * en, dat't|schaars door een hol- le- ken|ziet? *|
w: 2.Wie|zal naar ons kin- de- ke|kij- * ken, die|bleu- zen- den stou- ten ka-|poen? * Wie|zal er zijn hem- de- kes|strij- * ken, zijn|haar- ken in krul- le- kes|doen? *|
w: 3.Wie|zou voor ons kin- de- ke|der- * ven haar|laat- * ste krui- mel- ke|brood? * Wie|zou er, wie zou er voor|ster- * ven en|la- chen op kind en op|dood? *|
 d2 B d2 B | c>BA c3 | B2 G G>FG | A3 D3 | d2 B d2 B | ccc e3 | DDE FGA | G3- G2 z :| %17
w: Klei- ne, klei- ne|moe- der- k'al- leen|Douw, douw, douw- de- ri-|dei- ne.|Klei- ne, klei- ne|moe- der- k'al- leen.|Kan van uw wiegs- ke niet|scheên. *|
w: ||||||||
w: ||||||||
V:2
 z | D3 D3 | E3 G3 | G3 G3 | F3- F3 | G3 F3 | E3 D3 | G3 G3 | F3- F2 z | z6 | z6 | G2 E E>^DE | %12
w: |Douw douw|douw douw|douw douw|niet? *|Douw douw|douw douw|douw douw|ziet? *|||Douw, douw, douw- de- ri-|
w: ||||poen? *||||doen? *||||
w: ||||brood? *||||dood? *||||
 G3 F3 | z6 | z2 G G3 | A,A,A, DEF | D3- D2 z :| %17
w: dei- ne.||al- leen|Kan van uw wiegs- ke niet|scheên. *|
w: |||||
w: |||||
V:3
 d | d>cB d>cB | c2 e e2 e | d>dd ^c>cc | d3- czd | d>cB d>cB | c2 e e2 e | d>dd ^c>cc | d3- d2 z | %9
w: 1.Wie|zal er ons kin- de- ke|douw- * en en|doet het zijn moe- der- ken|niet? * Wie|zal er zijn de- ken- tjes|vouw- * en, dat't|schaars door een hol- le- ken|ziet? *|
w: 2.Wie|zal naar ons kin- de- ke|kij- * ken, die|bleu- zen- den stou- ten ka-|poen? * Wie|zal er zijn hem- de- kes|strij- * ken, zijn|haar- ken in krul- le- kes|doen? *|
w: 3.Wie|zou voor ons kin- de- ke|der- * ven haar|laat- * ste krui- mel- ke|brood? * Wie|zou er, wie zou er voor|ster- * ven en|la- chen op kind en op|dood? *|
 z6 | z6 | B2 B A>AA | d3 c3 | z6 | z2 c _B3 | dcB ABc | B3- B2 z :| %17
w: ||Douw, douw, douw- de- ri-|dei- ne.||al- leen|Kan van uw wiegs- ke niet|scheên. *|
w: ||||||||
w: ||||||||
V:4
 z | G,3 F,3 | E,3 D,3 | E,3 A,3 | D,3- D,3 | E,3 D,3 | C,3 B,,3 | A,,3 A,,3 | D,3- D,2 z | z6 | %10
w: |Douw douw|douw douw|douw douw|niet? *|Douw douw|douw douw|douw douw|ziet? *||
w: ||||poen? *||||doen? *||
w: ||||brood? *||||dood? *||
 z6 | E,2 D, ^C,>C,C, | D,3 D,3 | z6 | z2 C, ^C,3 | D,D,D, D,D,D, | [G,,G,]3- [G,,G,]2 z :| %17
w: |Douw, douw, douw- de- ri-|dei- ne.||al- leen|Kan van uw wiegs- ke niet|scheên. *|
w: |||||||
w: |||||||

